!!!SOCIAL_FUNCTION:	songs connected with rare medicines
!!!PDT:	1909
!!!OTL: No_87_Song_of_Starvation.krn
!!!REG: Great_Lakes
!!!LANG: Non-Tone
!!!LING_GROUP: Algonquin
**kern	**kern
*staff2	*staff1
=1-	=1-
*clefF4	*clefF4
*k[f#c#g#]	*k[f#c#g#]
*M2/4	*M2/4
8GG#/L	8B\L
8GG#/J	8B\J
8GG#/L	4B\
8GG#/J	.
=2	=2
8GG#/L	8B\L
8GG#/J	8A\J
8GG#/L	8A\L
8GG#/J	8Fn\J
=3	=3
2r	2Fn\
=4	=4
2r	4E\
.	4E\
=5	=5
2r	8A\L
.	8A\J
.	4A\
=6	=6
2r	8A\L
.	8Fn\J
.	8F\L
.	8E\J
=7	=7
2r	2E\
=8	=8
2r	4C#/
.	4C#/
=9	=9
2r	8C#/L
.	8C#/J
.	4E\
=10	=10
2r	8E\L
.	8E\J
.	8E\L
.	8E\J
=11	=11
2r	2E\
=12	=12
2r	4E\
.	4E\
=13	=13
=	=
2r	8F#\L
.	8F#\J
.	8A\L
.	8A\J
=14	=14
2r	8A\L
.	8A\J
.	8F#\L
.	8F#\J
=15	=15
2r	2F#\
=16	=16
2r	4F#\
.	4F#\
=17	=17
2r	8B\L
.	8B\J
.	4B\
=18	=18
2r	8B\L
.	8A\J
.	8A\L
.	8Fn\J
=19	=19
2r	2Fn\
=20	=20
2r	4E\
.	4E\
=21	=21
2r	8E/L
.	8C#/J
.	4E\
=22	=22
2r	8E\L
.	8E\J
.	8E\L
.	8E\J
=23	=23
2r	2E\
=24	=24
2r	4C#/
.	4C#/
=25	=25
2r	8C#/L
.	8C#/J
.	4E\
=26	=26
2r	8E\L
.	8E\J
.	8E\L
.	8E\J
=27	=27
2r	2E\
=28	=28
2r	4E\
.	4E\
==:|!	==:|!
*-	*-
